actions/16/format-justify-left.svg

<svg xmlns="http://www.w3.org/2000/svg" xmlns:xlink="http://www.w3.org/1999/xlink" viewBox="0 0 16 16"><defs><linearGradient id="a"><stop offset="0" stop-color="#555"/><stop offset="1" stop-color="#666"/></linearGradient><linearGradient xlink:href="#a" id="b" gradientUnits="userSpaceOnUse" x1="8" y1="16" x2="8" gradientTransform="translate(0 2)"/><linearGradient xlink:href="#a" id="c" gradientUnits="userSpaceOnUse" x1="8" y1="16" x2="8" gradientTransform="translate(0 2)"/><linearGradient xlink:href="#a" id="d" gradientUnits="userSpaceOnUse" x1="8" y1="16" x2="8" gradientTransform="translate(0 2)"/></defs><g color="#bebebe"><path style="text-indent:0;text-align:start;line-height:normal;text-transform:none;block-progression:tb;-inkscape-font-specification:Sans" d="M2 6.5h-.5v2h12v-2H2z" font-weight="400" fill="url(#b)" overflow="visible" font-family="Sans"/><path d="M6 7v.5h2V7zM2 7v.5h4V7zm6 0v.5h5V7z" opacity=".2" fill="#bebebe" overflow="visible"/><path d="M2 6.5h-.5v2h12v-2H2z" style="text-indent:0;text-align:start;line-height:normal;text-transform:none;block-progression:tb;-inkscape-font-specification:Sans" font-weight="400" opacity=".61" fill="none" stroke="#000" overflow="visible" font-family="Sans"/><path d="M2 2.5h-.5v2h9v-2H2z" style="text-indent:0;text-align:start;line-height:normal;text-transform:none;block-progression:tb;-inkscape-font-specification:Sans" font-weight="400" fill="url(#c)" overflow="visible" font-family="Sans"/><path d="M6 3v.5h2V3zM2 3v.5h4V3zm6 0v.5h2V3z" opacity=".2" fill="#bebebe" overflow="visible"/><path style="text-indent:0;text-align:start;line-height:normal;text-transform:none;block-progression:tb;-inkscape-font-specification:Sans" d="M2 2.5h-.5v2h9v-2H2z" font-weight="400" opacity=".61" fill="none" stroke="#000" overflow="visible" font-family="Sans"/><path style="text-indent:0;text-align:start;line-height:normal;text-transform:none;block-progression:tb;-inkscape-font-specification:Sans" d="M2 10.5h-.5v2h11v-2H2z" font-weight="400" fill="url(#d)" overflow="visible" font-family="Sans"/><path d="M6 11v.5h2V11zm-4 0v.5h4V11zm6 0v.5h4V11z" opacity=".2" fill="#bebebe" overflow="visible"/><path d="M2 10.5h-.5v2h11v-2H2z" style="text-indent:0;text-align:start;line-height:normal;text-transform:none;block-progression:tb;-inkscape-font-specification:Sans" font-weight="400" opacity=".61" fill="none" stroke="#000" overflow="visible" font-family="Sans"/></g></svg>

<?xml version="1.0" encoding="UTF-8" standalone="no"?>
<svg
   xmlns:dc="http://purl.org/dc/elements/1.1/"
   xmlns:cc="http://creativecommons.org/ns#"
   xmlns:rdf="http://www.w3.org/1999/02/22-rdf-syntax-ns#"
   xmlns:svg="http://www.w3.org/2000/svg"
   xmlns="http://www.w3.org/2000/svg"
   xmlns:xlink="http://www.w3.org/1999/xlink"
   width="16px"
   height="16px"
   id="svg5400"
   version="1.1">
  <defs
     id="defs5402">
    <linearGradient
       id="linearGradient3821">
      <stop
         style="stop-color:#555555;stop-opacity:1;"
         offset="0"
         id="stop3823" />
      <stop
         style="stop-color:#666666;stop-opacity:1;"
         offset="1"
         id="stop3825" />
    </linearGradient>
    <linearGradient
       xlink:href="#linearGradient3821"
       id="linearGradient4621"
       gradientUnits="userSpaceOnUse"
       x1="8"
       y1="16"
       x2="8"
       y2="0"
       gradientTransform="translate(0,2)" />
    <linearGradient
       xlink:href="#linearGradient3821"
       id="linearGradient4629"
       gradientUnits="userSpaceOnUse"
       x1="8"
       y1="16"
       x2="8"
       y2="0"
       gradientTransform="translate(0,2)" />
    <linearGradient
       xlink:href="#linearGradient3821"
       id="linearGradient4637"
       gradientUnits="userSpaceOnUse"
       x1="8"
       y1="16"
       x2="8"
       y2="0"
       gradientTransform="translate(0,2)" />
    <linearGradient
       xlink:href="#linearGradient3821"
       id="linearGradient4645"
       gradientUnits="userSpaceOnUse"
       x1="8"
       y1="16"
       x2="8"
       y2="0" />
  </defs>
  <metadata
     id="metadata5405">
    <rdf:RDF>
      <cc:Work
         rdf:about="">
        <dc:format>image/svg+xml</dc:format>
        <dc:type
           rdf:resource="http://purl.org/dc/dcmitype/StillImage" />
        <dc:title />
      </cc:Work>
    </rdf:RDF>
  </metadata>
  <g
     id="layer1">
    <path
       style="font-size:medium;font-style:normal;font-variant:normal;font-weight:normal;font-stretch:normal;text-indent:0;text-align:start;text-decoration:none;line-height:normal;letter-spacing:normal;word-spacing:normal;text-transform:none;direction:ltr;block-progression:tb;writing-mode:lr-tb;text-anchor:start;baseline-shift:baseline;color:#bebebe;fill:url(#linearGradient4621);fill-opacity:1;stroke:none;stroke-width:1;marker:none;visibility:visible;display:inline;overflow:visible;enable-background:accumulate;font-family:Sans;-inkscape-font-specification:Sans"
       d="m 2,6.5 -0.5,0 0,0.5 0,1 0,0.5 0.5,0 c 0,0 5.996916,0 11,0 l 0.5,0 0,-0.5 0,-1 0,-0.5 -0.5,0 c 0,0 -5.996916,0 -11,0 z"
       id="path4545" />
    <path
       style="opacity:0.2;color:#bebebe;fill:#bebebe;fill-opacity:1;stroke:none;stroke-width:1;marker:none;visibility:visible;display:inline;overflow:visible"
       d="M 6,7 6,7.5 8,7.5 8,7 z M 2,7 2,7.5 6,7.5 6,7 z m 6,0 0,0.5 5,0 0,-0.5 z"
       id="rect31992" />
    <path
       id="path4559"
       d="m 2,6.5 -0.5,0 0,0.5 0,1 0,0.5 0.5,0 c 0,0 5.996916,0 11,0 l 0.5,0 0,-0.5 0,-1 0,-0.5 -0.5,0 c 0,0 -5.996916,0 -11,0 z"
       style="font-size:medium;font-style:normal;font-variant:normal;font-weight:normal;font-stretch:normal;text-indent:0;text-align:start;text-decoration:none;line-height:normal;letter-spacing:normal;word-spacing:normal;text-transform:none;direction:ltr;block-progression:tb;writing-mode:lr-tb;text-anchor:start;baseline-shift:baseline;opacity:0.61000001;color:#bebebe;fill:none;stroke:#000000;stroke-width:1;stroke-opacity:1;marker:none;visibility:visible;display:inline;overflow:visible;enable-background:accumulate;font-family:Sans;-inkscape-font-specification:Sans" />
    <path
       id="path4623"
       d="m 2,2.5 -0.5,0 0,0.5 0,1 0,0.5 0.5,0 c 0,0 2.996916,0 8,0 l 0.5,0 0,-0.5 0,-1 0,-0.5 -0.5,0 c 0,0 -2.996916,0 -8,0 z"
       style="font-size:medium;font-style:normal;font-variant:normal;font-weight:normal;font-stretch:normal;text-indent:0;text-align:start;text-decoration:none;line-height:normal;letter-spacing:normal;word-spacing:normal;text-transform:none;direction:ltr;block-progression:tb;writing-mode:lr-tb;text-anchor:start;baseline-shift:baseline;color:#bebebe;fill:url(#linearGradient4629);fill-opacity:1;stroke:none;stroke-width:1;marker:none;visibility:visible;display:inline;overflow:visible;enable-background:accumulate;font-family:Sans;-inkscape-font-specification:Sans" />
    <path
       id="path4625"
       d="M 6,3 6,3.5 8,3.5 8,3 z M 2,3 2,3.5 6,3.5 6,3 z m 6,0 0,0.5 2,0 0,-0.5 z"
       style="opacity:0.2;color:#bebebe;fill:#bebebe;fill-opacity:1;stroke:none;stroke-width:1;marker:none;visibility:visible;display:inline;overflow:visible" />
    <path
       style="font-size:medium;font-style:normal;font-variant:normal;font-weight:normal;font-stretch:normal;text-indent:0;text-align:start;text-decoration:none;line-height:normal;letter-spacing:normal;word-spacing:normal;text-transform:none;direction:ltr;block-progression:tb;writing-mode:lr-tb;text-anchor:start;baseline-shift:baseline;opacity:0.61000001;color:#bebebe;fill:none;stroke:#000000;stroke-width:1;stroke-opacity:1;marker:none;visibility:visible;display:inline;overflow:visible;enable-background:accumulate;font-family:Sans;-inkscape-font-specification:Sans"
       d="m 2,2.5 -0.5,0 0,0.5 0,1 0,0.5 0.5,0 c 0,0 2.996916,0 8,0 l 0.5,0 0,-0.5 0,-1 0,-0.5 -0.5,0 c 0,0 -2.996916,0 -8,0 z"
       id="path4627" />
    <path
       style="font-size:medium;font-style:normal;font-variant:normal;font-weight:normal;font-stretch:normal;text-indent:0;text-align:start;text-decoration:none;line-height:normal;letter-spacing:normal;word-spacing:normal;text-transform:none;direction:ltr;block-progression:tb;writing-mode:lr-tb;text-anchor:start;baseline-shift:baseline;color:#bebebe;fill:url(#linearGradient4637);fill-opacity:1;stroke:none;stroke-width:1;marker:none;visibility:visible;display:inline;overflow:visible;enable-background:accumulate;font-family:Sans;-inkscape-font-specification:Sans"
       d="m 2,10.5 -0.5,0 0,0.5 0,1 0,0.5 0.5,0 c 0,0 4.996916,0 10,0 l 0.5,0 0,-0.5 0,-1 0,-0.5 -0.5,0 c 0,0 -4.996916,0 -10,0 z"
       id="path4631" />
    <path
       style="opacity:0.2;color:#bebebe;fill:#bebebe;fill-opacity:1;stroke:none;stroke-width:1;marker:none;visibility:visible;display:inline;overflow:visible"
       d="m 6,11 0,0.5 2,0 0,-0.5 z m -4,0 0,0.5 4,0 0,-0.5 z m 6,0 0,0.5 4,0 0,-0.5 z"
       id="path4633" />
    <path
       id="path4635"
       d="m 2,10.5 -0.5,0 0,0.5 0,1 0,0.5 0.5,0 c 0,0 4.996916,0 10,0 l 0.5,0 0,-0.5 0,-1 0,-0.5 -0.5,0 c 0,0 -4.996916,0 -10,0 z"
       style="font-size:medium;font-style:normal;font-variant:normal;font-weight:normal;font-stretch:normal;text-indent:0;text-align:start;text-decoration:none;line-height:normal;letter-spacing:normal;word-spacing:normal;text-transform:none;direction:ltr;block-progression:tb;writing-mode:lr-tb;text-anchor:start;baseline-shift:baseline;opacity:0.61000001;color:#bebebe;fill:none;stroke:#000000;stroke-width:1;stroke-opacity:1;marker:none;visibility:visible;display:inline;overflow:visible;enable-background:accumulate;font-family:Sans;-inkscape-font-specification:Sans" />
  </g>
</svg>
